X: 37815
T: Sonny Murray's
R: hornpipe
M: 4/4
K: Dmajor
dB|ABAF DEFG|AFAB =c2 (3AB^c|dcde fdAF|DGGF G2FG|
ABAF DEFG|AFAB =c2 (3AB^c|dcde fdAG|F2D2 D2:|
de|fedf edcA|dggf g2fg|abag agec|dcAF G2FG|
ABAF DEFG|AFAB =c2 (3AB^c|dcde fdAG|F2D2 D2:|

